flaticon/programming-line/php-document.svg

<svg xmlns="http://www.w3.org/2000/svg" width="32" height="32" viewBox="0 0 24 24">
    <path d="M 22.121094 4.824219 C 22.117188 4.816406 22.117188 4.808594 22.117188 4.800781 C 22.117188 4.796875 22.113281 4.792969 22.113281 4.792969 C 22.113281 4.78125 22.109375 4.773438 22.105469 4.761719 C 22.105469 4.761719 22.105469 4.757812 22.105469 4.757812 C 22.101562 4.75 22.097656 4.738281 22.097656 4.730469 C 22.09375 4.730469 22.09375 4.726562 22.09375 4.726562 C 22.089844 4.71875 22.085938 4.707031 22.082031 4.699219 C 22.082031 4.699219 22.082031 4.695312 22.078125 4.695312 C 22.074219 4.6875 22.070312 4.679688 22.066406 4.671875 C 22.066406 4.667969 22.0625 4.667969 22.0625 4.664062 C 22.058594 4.65625 22.050781 4.652344 22.046875 4.644531 C 22.042969 4.640625 22.042969 4.640625 22.042969 4.636719 C 22.035156 4.628906 22.027344 4.621094 22.019531 4.613281 L 17.507812 0.101562 C 17.5 0.09375 17.492188 0.0859375 17.484375 0.0820312 C 17.480469 0.078125 17.480469 0.078125 17.476562 0.0742188 C 17.46875 0.0703125 17.464844 0.0625 17.457031 0.0585938 C 17.453125 0.0585938 17.453125 0.0585938 17.449219 0.0546875 C 17.441406 0.0507812 17.433594 0.046875 17.425781 0.0429688 C 17.425781 0.0390625 17.421875 0.0390625 17.421875 0.0390625 C 17.414062 0.0351562 17.402344 0.03125 17.394531 0.0273438 C 17.394531 0.0273438 17.394531 0.0273438 17.390625 0.0273438 C 17.382812 0.0234375 17.371094 0.0195312 17.363281 0.015625 C 17.363281 0.015625 17.359375 0.015625 17.359375 0.015625 C 17.347656 0.0117188 17.339844 0.0078125 17.328125 0.0078125 C 17.328125 0.0078125 17.324219 0.0078125 17.320312 0.00390625 C 17.3125 0.00390625 17.304688 0.00390625 17.296875 0 C 17.285156 0 17.273438 0 17.261719 0 L 6.738281 0 C 5.714844 0 4.882812 0.832031 4.882812 1.855469 L 4.882812 3.757812 L 3.359375 3.757812 C 2.542969 3.757812 1.878906 4.421875 1.878906 5.238281 L 1.878906 8.992188 C 1.878906 9.808594 2.542969 10.472656 3.359375 10.472656 L 4.882812 10.472656 L 4.882812 22.144531 C 4.882812 23.167969 5.714844 24 6.738281 24 L 20.265625 24 C 21.289062 24 22.121094 23.167969 22.121094 22.144531 L 22.121094 4.859375 C 22.121094 4.847656 22.121094 4.835938 22.121094 4.824219 Z M 17.613281 1.203125 L 20.917969 4.507812 L 18.761719 4.507812 C 18.128906 4.507812 17.613281 3.992188 17.613281 3.359375 Z M 2.582031 8.992188 L 2.582031 5.238281 C 2.582031 4.808594 2.929688 4.460938 3.359375 4.460938 L 14.253906 4.460938 C 14.683594 4.460938 15.03125 4.808594 15.03125 5.238281 L 15.03125 8.992188 C 15.03125 9.421875 14.683594 9.769531 14.253906 9.769531 L 5.238281 9.769531 C 5.238281 9.769531 5.234375 9.769531 5.234375 9.769531 L 3.359375 9.769531 C 2.929688 9.769531 2.582031 9.421875 2.582031 8.992188 Z M 20.265625 23.296875 L 6.738281 23.296875 C 6.105469 23.296875 5.589844 22.777344 5.589844 22.144531 L 5.589844 10.472656 L 14.253906 10.472656 C 15.070312 10.472656 15.734375 9.808594 15.734375 8.992188 L 15.734375 5.238281 C 15.734375 4.421875 15.070312 3.757812 14.253906 3.757812 L 5.589844 3.757812 L 5.589844 1.855469 C 5.589844 1.222656 6.105469 0.703125 6.738281 0.703125 L 16.90625 0.703125 L 16.90625 3.359375 C 16.90625 4.382812 17.742188 5.214844 18.761719 5.214844 L 21.417969 5.214844 L 21.417969 22.144531 C 21.417969 22.777344 20.902344 23.296875 20.265625 23.296875 Z M 20.265625 23.296875"/>
    <path d="M15.382812 19.164062C15.289062 19.164062 15.199219 19.199219 15.132812 19.265625 15.066406 19.332031 15.03125 19.421875 15.03125 19.515625 15.03125 19.605469 15.066406 19.699219 15.132812 19.761719 15.199219 19.828125 15.289062 19.867188 15.382812 19.867188 15.472656 19.867188 15.566406 19.828125 15.628906 19.761719 15.695312 19.699219 15.734375 19.605469 15.734375 19.515625 15.734375 19.421875 15.695312 19.332031 15.628906 19.265625 15.566406 19.199219 15.472656 19.164062 15.382812 19.164062zM4.460938 7.84375L5.425781 7.84375C6.136719 7.84375 6.714844 7.265625 6.714844 6.550781 6.714844 5.839844 6.136719 5.261719 5.425781 5.261719L4.109375 5.261719C3.914062 5.261719 3.757812 5.417969 3.757812 5.613281L3.757812 8.617188C3.757812 8.8125 3.914062 8.96875 4.109375 8.96875 4.304688 8.96875 4.460938 8.8125 4.460938 8.617188zM6.011719 6.550781C6.011719 6.875 5.75 7.140625 5.425781 7.140625L4.460938 7.140625 4.460938 5.964844 5.425781 5.964844C5.75 5.964844 6.011719 6.226562 6.011719 6.550781zM11.625 8.96875C11.820312 8.96875 11.976562 8.8125 11.976562 8.617188L11.976562 7.84375 12.9375 7.84375C13.652344 7.84375 14.230469 7.265625 14.230469 6.550781 14.230469 5.839844 13.652344 5.261719 12.9375 5.261719L11.625 5.261719C11.429688 5.261719 11.273438 5.417969 11.273438 5.613281L11.273438 8.617188C11.273438 8.8125 11.429688 8.96875 11.625 8.96875zM13.527344 6.550781C13.527344 6.875 13.261719 7.140625 12.9375 7.140625L11.976562 7.140625 11.976562 5.964844 12.9375 5.964844C13.261719 5.964844 13.527344 6.226562 13.527344 6.550781zM7.492188 8.96875C7.6875 8.96875 7.84375 8.8125 7.84375 8.617188L7.84375 7.84375 9.769531 7.84375 9.769531 8.617188C9.769531 8.8125 9.925781 8.96875 10.121094 8.96875 10.316406 8.96875 10.472656 8.8125 10.472656 8.617188L10.472656 5.613281C10.472656 5.417969 10.316406 5.261719 10.121094 5.261719 9.925781 5.261719 9.769531 5.417969 9.769531 5.613281L9.769531 7.140625 7.84375 7.140625 7.84375 5.613281C7.84375 5.417969 7.6875 5.261719 7.492188 5.261719 7.296875 5.261719 7.140625 5.417969 7.140625 5.613281L7.140625 8.617188C7.140625 8.8125 7.296875 8.96875 7.492188 8.96875zM12.625 14.003906C12.488281 13.867188 12.265625 13.867188 12.125 14.003906L9.496094 16.636719C9.359375 16.773438 9.359375 16.996094 9.496094 17.132812L12.125 19.765625C12.195312 19.832031 12.285156 19.867188 12.375 19.867188 12.464844 19.867188 12.554688 19.832031 12.625 19.765625 12.761719 19.625 12.761719 19.402344 12.625 19.265625L10.242188 16.882812 12.625 14.503906C12.761719 14.367188 12.761719 14.144531 12.625 14.003906zM15.382812 13.902344C14.152344 13.902344 13.152344 14.902344 13.152344 16.132812 13.152344 16.328125 13.308594 16.484375 13.503906 16.484375 13.699219 16.484375 13.855469 16.328125 13.855469 16.132812 13.855469 15.292969 14.539062 14.605469 15.382812 14.605469 16.222656 14.605469 16.90625 15.292969 16.90625 16.132812 16.90625 16.976562 16.222656 17.660156 15.382812 17.660156 15.1875 17.660156 15.03125 17.816406 15.03125 18.011719L15.03125 18.386719C15.03125 18.582031 15.1875 18.738281 15.382812 18.738281 15.574219 18.738281 15.734375 18.582031 15.734375 18.386719L15.734375 18.335938C16.796875 18.167969 17.613281 17.242188 17.613281 16.132812 17.613281 14.902344 16.613281 13.902344 15.382812 13.902344zM15.382812 13.902344"/>
</svg>

<svg xmlns="http://www.w3.org/2000/svg" width="32" height="32" viewBox="0 0 24 24">
    <path d="M22.121 4.824c-.004-.008-.004-.015-.004-.023 0-.004-.004-.008-.004-.008 0-.012-.004-.02-.008-.031v-.004a.072.072 0 0 1-.007-.028c-.004 0-.004-.003-.004-.003l-.012-.028s0-.004-.004-.004l-.012-.023c0-.004-.003-.004-.003-.008-.004-.008-.012-.012-.016-.02-.004-.003-.004-.003-.004-.007l-.023-.024L17.508.102c-.008-.008-.016-.016-.024-.02l-.007-.008c-.008-.004-.012-.011-.02-.015-.004 0-.004 0-.008-.004l-.023-.012c0-.004-.004-.004-.004-.004l-.027-.012h-.004l-.028-.011h-.004c-.011-.004-.02-.008-.03-.008 0 0-.005 0-.009-.004-.008 0-.015 0-.023-.004H6.738a1.857 1.857 0 0 0-1.855 1.855v1.903H3.359c-.816 0-1.48.664-1.48 1.48v3.754c0 .817.664 1.48 1.48 1.48h1.524v11.673c0 1.023.832 1.855 1.855 1.855h13.528a1.857 1.857 0 0 0 1.855-1.855V4.859v-.035zm-4.508-3.62l3.305 3.304h-2.156a1.15 1.15 0 0 1-1.149-1.149zM2.582 8.991V5.238c0-.43.348-.777.777-.777h10.895c.43 0 .777.348.777.777v3.754c0 .43-.347.778-.777.778H5.238 3.36a.777.777 0 0 1-.777-.778zm17.684 14.305H6.738c-.633 0-1.148-.52-1.148-1.152V10.473h8.664c.816 0 1.48-.664 1.48-1.48V5.237c0-.816-.664-1.48-1.48-1.48H5.59V1.855c0-.632.515-1.152 1.148-1.152h10.168V3.36a1.86 1.86 0 0 0 1.856 1.856h2.656v16.93c0 .632-.516 1.152-1.152 1.152zm0 0"/>
    <path d="M15.383 19.164a.351.351 0 0 0-.25.102.351.351 0 0 0-.102.25.355.355 0 0 0 .352.352c.09 0 .183-.04.246-.106a.346.346 0 0 0 0-.496.342.342 0 0 0-.246-.102zm0 0M4.46 7.844h.966a1.291 1.291 0 0 0 0-2.582H4.109a.35.35 0 0 0-.351.351v3.004a.35.35 0 0 0 .351.352.35.35 0 0 0 .352-.352zM6.013 6.55c0 .324-.262.59-.586.59H4.46V5.965h.965c.324 0 .586.262.586.586zm0 0M11.625 8.969a.35.35 0 0 0 .352-.352v-.773h.96a1.292 1.292 0 1 0 0-2.582h-1.312a.35.35 0 0 0-.352.351v3.004a.35.35 0 0 0 .352.352zm1.902-2.418c0 .324-.265.59-.59.59h-.96V5.965h.96c.325 0 .59.262.59.586zm0 0M7.492 8.969a.35.35 0 0 0 .352-.352v-.773H9.77v.773a.35.35 0 0 0 .351.352.35.35 0 0 0 .352-.352V5.613a.35.35 0 0 0-.352-.351.35.35 0 0 0-.351.351v1.528H7.844V5.613a.35.35 0 0 0-.352-.351.35.35 0 0 0-.351.351v3.004a.35.35 0 0 0 .351.352zm0 0M12.625 14.004a.356.356 0 0 0-.5 0l-2.629 2.633a.351.351 0 0 0 0 .496l2.629 2.633c.07.066.16.101.25.101s.18-.035.25-.101a.356.356 0 0 0 0-.5l-2.383-2.383 2.383-2.38a.356.356 0 0 0 0-.5zm0 0M15.383 13.902c-1.23 0-2.23 1-2.23 2.23a.35.35 0 0 0 .35.352.35.35 0 0 0 .352-.351c0-.84.684-1.528 1.528-1.528.84 0 1.523.688 1.523 1.528 0 .844-.683 1.527-1.523 1.527a.35.35 0 0 0-.352.352v.375a.35.35 0 0 0 .352.351.353.353 0 0 0 .351-.351v-.051a2.235 2.235 0 0 0 1.88-2.203c0-1.23-1-2.23-2.231-2.23zm0 0"/>
</svg>
